!!!OTL: Rekrutenlied  (161), S. 350
!!!id: T0334V
**kern
*clefG2
*k[]
*G:
{16g
=1
16g
4g
8g
8g
4b
8g
8b
=2
4dd
4dd
4dd}
=3
{4ee
=4
8cc
8cc
8cc
8cc
4cc
8cc
8ee
=5
4dd
4b
4b}
=6
{4ee
=7
8.dd
16a
8a
8a
4a
8b
8cc
=8
8.dd
16g
8g
8g
4g}
=9
{8g
8g
=10
8cc
8cc
8cc
8cc
8cc
8b
8a
8g
=11
4dd
8dd
8dd
8dd
8cc}
=12
{8b
8a
=13
8.ee
16ee
8ee
8ee
4ee
8ee
8ee
=14
4dd
4cc
4b
4ee
=15
8dd
8cc
8cc
8cc
4b}
4r
==
*-
!!!minrhy: 16
!!!meters: 4/4 ]  ZZ[5
!!!cut1: Rekrutenlied  (161), S. 350
!!!cut2: Melodie II
!!!reg: Luxemburg
!!!trd: Singendes Volk, Esch-Alzette 1937, posth.
!!!rhy1:   X__X_X_X__X_X_  X__X__X__   (x2)
!!!rhy2: X__  X_X_X_X_X__X_X_  X__X__X__
!!!key: T0334V 16  G 4/4 ]  ZZ[5
!!!mod: SECHSTONSKALA DUR ?]  AMBITUS[6
!!!kad: 53143
!!!akz: 1355_4453_5251_4455_665353_
!!!fot: 'a__b__c__bw_d__
!!!for: 'a__b__c__d__e__
!!!fok: '/__\__Sd_~a_^__
!! PHRAS[VORWIEGEND AUFTAKTIG]
!!!fkt: historische, Kriegs- und Soldatenlieder, Abschiedslied, Trauer
!!!bem: Esch-Alzette, hhh Dominik M&uuml;ller, 7.6.1915
!! THILL, Mathias:
!! PR[24] 2K[2] 2G[9] 3K[9] 3G[7] 4A[7] 4Ü[0] 5A[2] 6K[0] 6G[0]
!! 7K[0] 7G[0] 8A[0] MEHR[0] SI[36] ABS[45] SR[11] SP[24]
!! ST[12] 2k[7] 2g[22] 3k[2] 3g[4] 4d[0] 4ü[0] 5d[0] 6k[4] 6g[0]
!! 7k[0] 7g[0] 8d[0] mehr[0] si[40] dm[-4] sr[29] sp[11]
!! 1F[17] 2F[71] 3F[4] 4F[0] LF[0] 2P[8] 3P[0] 4P[0] TRI[0] DF[4] AB[48]
!! TF[0] U3K[0] U3[0] U4[0] U4Ü[0] U5[2] U6K[0] U6[0] U7K[0] U7[0]
!! N1[11] N2K[0] N2[11] N3K[0] N3[20] N4[17] N4Ü[0] N5[22] N6K[0] N6[13]
!!!n7k: 0] N7[0] O1[4] O2K[0] O2[0] O3K[0] O3[0] HÖ[0
!!!RNB: symbol: &uuml;  = u umlaut (UTF-8: Ã¼)
